src/images/svgs/brand-icon-medium.svg

<?xml version="1.0" encoding="UTF-8" standalone="no"?><!DOCTYPE svg PUBLIC "-//W3C//DTD SVG 1.1//EN" "http://www.w3.org/Graphics/SVG/1.1/DTD/svg11.dtd"><svg width="100%" height="100%" viewBox="0 0 1024 1024" version="1.1" xmlns="http://www.w3.org/2000/svg" xmlns:xlink="http://www.w3.org/1999/xlink" xml:space="preserve" xmlns:serif="http://www.serif.com/" style="fill-rule:evenodd;clip-rule:evenodd;stroke-linejoin:round;stroke-miterlimit:2;"><path d="M1024,797.736l0,46.615c0,99.151 -80.498,179.649 -179.649,179.649l-664.702,0c-99.151,0 -179.649,-80.498 -179.649,-179.649l0,-664.702c0,-99.151 80.498,-179.649 179.649,-179.649l664.702,0c99.151,0 179.649,80.498 179.649,179.649l0,191.481c-4.29,-0.286 -8.6,-0.431 -12.94,-0.431l-0.99,0c-22.9,0 -50.992,5.554 -70.98,15.617c-22.756,10.536 -42.823,26.29 -59.522,46.968c-26.881,33.31 -43.167,78.329 -47.125,128.92c-0.128,1.516 -0.237,3.032 -0.345,4.549c-0.109,1.516 -0.177,2.875 -0.246,4.322c-0.138,2.708 -0.246,5.426 -0.306,8.153c-0.098,4.372 -0.128,8.774 -0.049,13.204c2.669,114.584 64.564,206.156 174.503,206.156c6.16,0 12.16,-0.288 18,-0.852Zm0,-401.019l0,131.29l-91.951,0c3.437,-76.862 31.037,-132.337 77.351,-133.292c5.18,0.086 10.05,0.755 14.6,2.002Zm0,152.952l0,155.067c-57.308,-16.866 -98.297,-80.157 -94.058,-155.047l0.03,-0.02l94.028,0Zm-187.885,-305.044l0.808,-0.177l0,-6.253l-164.909,0l-153.123,359.889l-153.123,-359.889l-177.709,0l0,6.253l0.798,0.177c30.1,6.794 45.382,16.926 45.382,53.466l0,427.781c0,36.54 -15.341,46.672 -45.441,53.466l-0.798,0.178l0,6.272l120.57,0l0,-6.253l-0.797,-0.177c-30.101,-6.794 -45.383,-16.926 -45.383,-53.466l0,-402.987l196.703,462.883l11.156,0l202.434,-475.792l0,426.461c-2.579,28.86 -17.723,37.771 -44.978,43.925l-0.808,0.187l0,6.204l210.026,0l0,-6.204l-0.808,-0.187c-27.284,-6.154 -42.793,-15.065 -45.372,-43.925l-0.138,-438.366l0.138,0c0,-36.54 15.281,-46.672 45.372,-53.466Z"/></svg>

<svg width="1024" height="1024" viewBox="0 0 1024 1024" fill="none" xmlns="http://www.w3.org/2000/svg">
<rect width="1024" height="1024" rx="179.649" fill="black"/>
<path d="M1024 704.736V797.736C1018.16 798.3 1012.16 798.588 1006 798.588C896.061 798.588 834.166 707.016 831.497 592.432C831.418 588.002 831.448 583.6 831.546 579.228C831.606 576.501 831.714 573.783 831.852 571.075C831.921 569.628 831.989 568.269 832.098 566.753C832.206 565.236 832.315 563.72 832.443 562.204C836.401 511.613 852.687 466.594 879.568 433.284C896.267 412.606 916.334 396.852 939.09 386.316C959.078 376.253 987.17 370.699 1010.07 370.699H1011.06C1015.4 370.699 1019.71 370.844 1024 371.13V396.717C1019.45 395.47 1014.58 394.801 1009.4 394.715C963.086 395.67 935.486 451.145 932.049 528.007H1024V549.669H929.972L929.942 549.689C925.703 624.579 966.692 687.87 1024 704.736Z" fill="white"/>
<path d="M836.115 244.625L836.923 244.448V238.195H672.014L518.891 598.084L365.768 238.195H188.059V244.448L188.857 244.625C218.957 251.419 234.239 261.551 234.239 298.091V725.872C234.239 762.412 218.898 772.544 188.798 779.338L188 779.516V785.788H308.57V779.535L307.773 779.358C277.672 772.564 262.39 762.432 262.39 725.892V322.905L459.093 785.788H470.249L672.683 309.996V736.457C670.104 765.317 654.96 774.228 627.705 780.382L626.897 780.569V786.773H836.923V780.569L836.115 780.382C808.831 774.228 793.322 765.317 790.743 736.457L790.605 298.091H790.743C790.743 261.551 806.024 251.419 836.115 244.625Z" fill="white"/>
</svg>
